X: 40
T: Over the Water #1   (C)
O: Rutherford 1756
R: jig
Z: 2019 John Chambers <jc:trillian.mit.edu>
B: Rutherford's compleat Collection 1756 v.1 p.25? #40 [2019-4-19]
M: 6/8
L: 1/8
K: C
|:\
"C"G2G G2A | "G7"EFD "C"CEF | "C"GAG GEG | "F"A3 "C"c3 |\
"C"G2G G2A | "Dm"F2E "G7"D2C | "F"cBA "C"GEG | "F"A3 "C"c3 :|
|:\
"C"c2d "Am"e2f | "Dm"dec "G7"dBG | "C"c2d "Am"efe | "Dm"d3 "G7"G3 |\
"C"c2d "Am"efe | "D(m)"dec "G7"dBG | "F"(A{B}c)A "C"GEG | "F"A3 "C"c3 :|
% %begintext align
% % Cast off & Hands round four with the Bottom Cou. .|
% % Cast up & Hands round for with ye 2d Cou. :|
% % Gallop down the Middle & up again and cast off .|
% % Hands round all Six :|:
% %endtext

%%sep 2 1 500

